Obsidian/actions/16s/archive.svg

<svg height="16" viewBox="0 0 16 16" width="16" xmlns="http://www.w3.org/2000/svg"><path d="m2.9101562 1.0351562c-.4982899.0427001-.8373.47989-.9375.9375-.2917499.89152-.5919 1.7934-.875 2.6875l-.09375.375v7.9999998c0 .554.4460001 1 1 1h11.9999998c.554 0 1-.446 1-1v-7.9999998l-.125-.46875c-.33823-.98973-.64265-2.0178-1-3-.21398-.43813-.7019-.57676995-1.15625-.53125zm.8183594 2h8.5332034c.10804.32301.222041.66784.332031 1h-9.1914062c.1087499-.33377.2158218-.66405.3261718-1zm3.2753906 3h2v3h1.7499998l-2.7499998 2.9999998-2.75-2.9999998h1.75z" fill="#bebebe"/></svg>

<svg xmlns="http://www.w3.org/2000/svg" width="16" height="16" viewBox="0 0 16 16">
 <defs>
  <style id="current-color-scheme" type="text/css">
   .ColorScheme-Text { color:#bebebe; } .ColorScheme-Highlight { color:#4285f4; }
  </style>
 </defs>
 <path style="fill:currentColor" class="ColorScheme-Text" d="M 2.9101562 1.0351562 C 2.4118663 1.0778563 2.0728562 1.5150462 1.9726562 1.9726562 C 1.6809063 2.8641762 1.3807562 3.7660562 1.0976562 4.6601562 L 1.0039062 5.0351562 L 1.0039062 13.035156 C 1.0039062 13.589156 1.4499063 14.035156 2.0039062 14.035156 L 14.003906 14.035156 C 14.557906 14.035156 15.003906 13.589156 15.003906 13.035156 L 15.003906 5.0351562 L 14.878906 4.5664062 C 14.540676 3.5766762 14.236256 2.5486062 13.878906 1.5664062 C 13.664926 1.1282762 13.177006 0.98963625 12.722656 1.0351562 L 2.9101562 1.0351562 z M 3.7285156 3.0351562 L 12.261719 3.0351562 C 12.369759 3.3581662 12.48376 3.7029962 12.59375 4.0351562 L 3.4023438 4.0351562 C 3.5110937 3.7013862 3.6181656 3.3711062 3.7285156 3.0351562 z M 7.0039062 6.0351562 L 9.0039062 6.0351562 L 9.0039062 9.0351562 L 10.753906 9.0351562 L 8.0039062 12.035156 L 5.2539062 9.0351562 L 7.0039062 9.0351562 L 7.0039062 6.0351562 z"/>
</svg>
